X:1
T:Hope (Hayden), 664.664
T:Hope (Hayden), 664.664
T:Victoria Hayden, 1866
T:Public Domain Courtesy of the Cyber Hymnal™
C:Victoria Hayden, 1866
Z:Public Domain
Z:Courtesy of the Cyber Hymnal™
%%score ( 1 2 ) ( 3 4 )
L:1/8
Q:1/4=120
M:3/4
K:Ab
V:1 treble 
V:2 treble 
V:3 bass 
V:4 bass 
V:1
 [EA]2 [EA]2 [EA]2 | (G2 A2) [EB]2 | [EA]6 z2 | [Ec]2 [Ec]2 [Ec]2 | (B2 c2) [Ed]2 | [Ec]6 z2 | %6
 [EB]2 [EA]2 [EB]2 | [EA]6 z2 | [Ee]2 [Ed]2 [Ec]2 | ([DB]2 [Ec]2) [EB]2 | [EA]6 z2 | %11
 [EG]2 [EG]2 [EA]2 | [EB]4 [Ac]2 | [Gd]6 z2 | [Ac]2 [EA]2 [EB]2 | [EA]6 |] %16
V:2
 x6 | E4 x2 | x8 | x6 | E4 x2 | x8 | x6 | x8 | x6 | x6 | x8 | x6 | x6 | x8 | x6 | x6 |] %16
V:3
 [A,,C]2 [A,,C]2 [C,C]2 | (B,2 C2) [E,D]2 | [A,,C]6 z2 | [A,,A,]2 [A,,A,]2 [C,A,]2 | %4
 (G,2 A,2) [E,B,]2 | [A,,A,]6 z2 | [E,D]2 [E,C]2 [E,D]2 | [A,,C]6 z2 | [E,C]2 [E,B,]2 [E,A,]2 | %9
 [E,G,]4 [E,D]2 | [A,,C]6 z2 | [E,B,]2 [E,B,]2 [E,C]2 | [E,D]4 [E,C]2 | [E,B,]6 z2 | %14
 [F,A,]2 [E,C]2 [E,D]2 | [A,,C]6 |] %16
V:4
 x6 | E,4 x2 | x8 | x6 | E,4 x2 | x8 | x6 | x8 | x6 | x6 | x8 | x6 | x6 | x8 | x6 | x6 |] %16

